images/ic_home.svg

<svg width="20" height="20" viewBox="0 0 20 20" fill="none" xmlns="http://www.w3.org/2000/svg">
<path d="M19.773 9.23495L11.6327 1.04108C11.6223 1.03053 11.6115 1.0203 11.6005 1.01038C10.7116 0.21229 9.36843 0.209439 8.47617 1.00377C8.46507 1.01366 8.45429 1.02385 8.44378 1.03432L0.229371 9.23256C-0.0760201 9.53741 -0.0765279 10.0321 0.228277 10.3374C0.53312 10.6428 1.02777 10.6433 1.33312 10.3385L1.95312 9.71975V16.4652C1.95312 18.1883 3.355 19.5902 5.07812 19.5902H7.89062C8.3221 19.5902 8.67187 19.2405 8.67187 18.809V12.4418H11.4062V18.809C11.4062 19.2405 11.756 19.5902 12.1875 19.5902H14.9219C16.645 19.5902 18.0469 18.1883 18.0469 16.4652C18.0469 16.0337 17.6971 15.684 17.2656 15.684C16.8341 15.684 16.4844 16.0337 16.4844 16.4652C16.4844 17.3268 15.7834 18.0277 14.9219 18.0277H12.9687V11.6605C12.9687 11.229 12.619 10.8793 12.1875 10.8793H7.89062C7.45914 10.8793 7.10937 11.229 7.10937 11.6605V18.0277H5.07812C4.21656 18.0277 3.51562 17.3268 3.51562 16.4652V8.18397C3.51562 8.17616 3.5155 8.16839 3.51527 8.16065L9.52913 2.15866C9.82183 1.9101 10.2511 1.91104 10.5427 2.16081L16.4844 8.14167V12.559C16.4844 12.9905 16.8341 13.3402 17.2656 13.3402C17.6971 13.3402 18.0469 12.9905 18.0469 12.559V9.71444L18.6645 10.3362C18.8172 10.4899 19.0179 10.5668 19.2187 10.5668C19.4178 10.5668 19.617 10.4912 19.7694 10.3398C20.0755 10.0357 20.0771 9.54104 19.773 9.23495Z" fill="#929292"/>
</svg>

<svg xmlns="http://www.w3.org/2000/svg" fill="none" viewBox="0 0 20 20"><path d="M19.773 9.235L11.6 1A2.34 2.34 0 0 0 8.476.993l-.032.03-8.214 8.2a.78.78 0 1 0 1.104 1.106l.62-.62v6.745a3.13 3.13 0 0 0 3.125 3.125H7.9a.78.78 0 0 0 .781-.781V12.44h2.734v6.367a.78.78 0 0 0 .781.781h2.734a3.13 3.13 0 0 0 3.125-3.125.78.78 0 1 0-1.562 0c0 .862-.7 1.563-1.562 1.563h-1.95V11.66a.78.78 0 0 0-.781-.781H7.9a.78.78 0 0 0-.781.781v6.367H5.08c-.862 0-1.562-.7-1.562-1.562V8.16l6.013-6a.78.78 0 0 1 1.014.002l5.942 5.98v4.417a.78.78 0 1 0 1.563 0V9.714l.618.622a.78.78 0 1 0 1.109-1.101z" fill="#929292"/></svg>
